build/documents/ScanSendSolid.svg

<svg xmlns="http://www.w3.org/2000/svg" fill="none" viewBox="0 0 24 24" focusable="false"><path d="M0 0H24V24H0z"/><path fill="#74767B" fill-rule="evenodd" d="M6.9999 3C5.34304 3 3.9999 4.34315 3.9999 6L3.9999 11.35L2.99985 11.35C2.64087 11.35 2.34985 11.641 2.34985 12C2.34985 12.359 2.64087 12.65 2.99985 12.65L8.18373 12.65C8.21266 12.65 8.24113 12.6481 8.26905 12.6444L14.1949 12.6444C14.2533 12.6444 14.3103 12.6272 14.3597 12.596C15.256 12.0285 16.3186 11.7 17.458 11.7C18.1994 11.7 18.9082 11.8391 19.56 12.0926C19.7667 12.173 19.9999 12.0266 19.9999 11.8048L19.9999 9.29679C19.9999 8.46926 19.6581 7.67849 19.0553 7.11153L15.5502 3.81474C14.9938 3.29139 14.2587 3 13.4948 3L6.9999 3ZM12.2623 13.9444C12.5118 13.9444 12.6569 14.2353 12.5253 14.4474C11.9755 15.3341 11.658 16.3799 11.658 17.5C11.658 18.5983 11.9633 19.6253 12.4936 20.5007C12.622 20.7128 12.4768 21 12.2289 21L6.9999 21C5.34304 21 3.9999 19.6569 3.9999 18L3.9999 14.2444C3.9999 14.0788 4.13421 13.9444 4.2999 13.9444L12.2623 13.9444ZM14.9889 8.99986L18.3904 8.99986C18.6618 8.99986 18.7937 8.66829 18.5965 8.48187L14.195 4.32027C14.0037 4.13942 13.6889 4.27502 13.6889 4.53826L13.6889 7.69986C13.6889 8.41784 14.2709 8.99986 14.9889 8.99986ZM17.4581 22C14.9729 22 12.9581 19.9853 12.9581 17.5C12.9581 15.0147 14.9729 13 17.4581 13C19.9434 13 21.9581 15.0147 21.9581 17.5C21.9581 19.9853 19.9434 22 17.4581 22ZM17.5944 20.354C17.4144 20.354 17.2444 20.284 17.1144 20.144C16.8744 19.874 16.8944 19.464 17.1544 19.224L18.3498 18.0766L14.9714 18.0766C14.6124 18.0766 14.3214 17.7856 14.3214 17.4266C14.3214 17.0676 14.6124 16.7766 14.9714 16.7766L18.3427 16.7766L17.1544 15.6393C16.8844 15.3993 16.8744 14.9893 17.1144 14.7193C17.3544 14.4593 17.7644 14.4393 18.0344 14.6793L20.3821 16.9066C20.6921 17.1866 20.6921 17.6666 20.3821 17.9466L18.0344 20.184C17.9044 20.304 17.7544 20.354 17.5944 20.354Z"/></svg>

<svg xmlns="http://www.w3.org/2000/svg" fill="none" viewBox="0 0 24 24" focusable="false"><path fill="#74767B" fill-rule="evenodd" d="M7 3C5.34 3 4 4.34 4 6v5.35H2.99c-.35 0-.65.29-.65.65 0 .35.3.65.65.65h5.19c.03 0 .06-.01.08-.01h5.93c.06 0 .12-.02.16-.05.9-.57 1.96-.89 3.1-.89.74 0 1.45.13 2.11.39.2.08.44-.07.44-.29V9.29c0-.83-.35-1.62-.95-2.18l-3.5-3.3c-.56-.52-1.3-.81-2.06-.81zm5.26 10.94c.25 0 .39.29.26.5-.55.89-.87 1.93-.87 3.06 0 1.09.31 2.12.84 3 .13.21-.02.5-.27.5H7c-1.66 0-3-1.35-3-3v-3.76c0-.17.13-.3.29-.3zm2.72-4.95h3.41c.27 0 .4-.33.2-.51l-4.4-4.16a.3.3 0 0 0-.51.21v3.16c0 .72.59 1.3 1.3 1.3M17.45 22c-2.48 0-4.5-2.02-4.5-4.5a4.5 4.5 0 1 1 4.5 4.5m.14-1.65c-.18 0-.35-.07-.48-.21a.66.66 0 0 1 .04-.92l1.19-1.15h-3.37c-.36 0-.65-.29-.65-.65s.29-.65.65-.65h3.37l-1.19-1.14a.65.65 0 0 1-.04-.92c.24-.26.65-.28.92-.04l2.35 2.23c.31.28.31.76 0 1.04l-2.35 2.24c-.13.12-.28.17-.44.17"/></svg>
